world_stage/static/flags/rect/deu.svg

<svg height="807.11066" viewBox="0 0 1210.6667 807.11066" width="1210.6667" xmlns="http://www.w3.org/2000/svg"><g transform="matrix(1.3333333 0 0 -1.3333333 0 807.11067)"><path d="m0 5h908v599.999h-908z"/><path d="m0 0h908v399h-908z" fill="#d00"/><path d="m0 0h908v199h-908z" fill="#ffce00"/></g></svg>

<?xml version="1.0" encoding="UTF-8" standalone="no"?>
<!-- Created with Inkscape (http://www.inkscape.org/) -->

<svg
   version="1.1"
   id="svg1"
   width="1210.6667"
   height="807.11066"
   viewBox="0 0 1210.6667 807.11066"
   sodipodi:docname="de.ai"
   xmlns:inkscape="http://www.inkscape.org/namespaces/inkscape"
   xmlns:sodipodi="http://sodipodi.sourceforge.net/DTD/sodipodi-0.dtd"
   xmlns="http://www.w3.org/2000/svg"
   xmlns:svg="http://www.w3.org/2000/svg">
  <defs
     id="defs1" />
  <sodipodi:namedview
     id="namedview1"
     pagecolor="#ffffff"
     bordercolor="#000000"
     borderopacity="0.25"
     inkscape:showpageshadow="2"
     inkscape:pageopacity="0.0"
     inkscape:pagecheckerboard="0"
     inkscape:deskcolor="#d1d1d1">
    <inkscape:page
       x="0"
       y="0"
       inkscape:label="1"
       id="page1"
       width="1210.6667"
       height="807.11066"
       margin="0"
       bleed="0" />
  </sodipodi:namedview>
  <g
     id="layer-MC0"
     inkscape:groupmode="layer"
     inkscape:label="Layer 1">
    <path
       id="path1"
       d="M 0,5 H 908 V 604.999 H 0 Z"
       style="fill:#000000;fill-opacity:1;fill-rule:nonzero;stroke:none"
       transform="matrix(1.3333333,0,0,-1.3333333,0,807.11067)" />
    <path
       id="path2"
       d="M 0,0 H 908 V 399 H 0 Z"
       style="fill:#dd0000;fill-opacity:1;fill-rule:nonzero;stroke:none"
       transform="matrix(1.3333333,0,0,-1.3333333,0,807.11067)" />
    <path
       id="path3"
       d="M 0,0 H 908 V 199 H 0 Z"
       style="fill:#ffce00;fill-opacity:1;fill-rule:nonzero;stroke:none"
       transform="matrix(1.3333333,0,0,-1.3333333,0,807.11067)" />
  </g>
</svg>
